!!!!SEGMENT: pl-kk--kk-i-265--003_anonim--surrexit-dominus.krn
!!!cenid: 17xx:2051
!!!COM: Anonim
!!!COM-rismid: pe30004985
!!!CDT:
!!!CNT:
!!!OTL: Surrexit Dominus
!!!PDT:
!!!AGN: Sacred
!!!SMS-siglum: PL-Kk
!!!SMS-shelfmark: Kk.I.265
!!!SMS-shelfwork: 003 W
!!!SMS-variant:
!!!SMS-altvar:
!!!NIFC-rismid: 1001143727
!!!URL-scan: http://repozytorium.nifc.pl/skany/pl-kk-nut--i-265
!!!ONB-nifc: UWAGA: utwory w zbiorze: 1. Rorate caeli (Alto, Basso), 2. Alleluia Ave Maria (B), 3. Surrexit Dominus (B)
!!!key:
**kern	**text
*Ibass	*
*I"	*
*clefF4	*
*k[b-]	*
*g:	*
*M2\1	*
*met(c)	*
=1-	=1-
4r	.
4G\	Sur-
4G\	-re-
!LO:TX:a:t=P:problem:kreska pseudotaktowa	!
4G\	-xit
*2\right	*
2.F\	D(o-
4F\	-mi)-
=2-	=2-
!LO:TX:a:t=P:problem:kreska pseudotaktowa	!
1BB-	-nus
2D/	va-
4G\	-le-
4G\	-te
=3-	=3-
2F\	lu-
!LO:TX:a:t=P:problem:kreska pseudotaktowa	!
2F\	-ctus
2D/	to-
4E\	-tus
!LO:TX:a:t=P:problem:kreska pseudotaktowa	!
4F\	con-
=4-	=4-
!LO:SIC:v:l:s=-cin-	!
2BB-/	-ci-
2C/	-nat
2F\	or-
!LO:TX:a:t=P:problem:kreska pseudotaktowa	!
2BB-/	-bis
=5-	=5-
4C/	Al-
4C/	-le-
2D/	-lu-
1GG	-ia
!LO:LB:g=original	!
=6||-	=6||-
*M3/1	*
1D	Ut
1D	qui
!LO:TX:a:t=P:problem:kreska pseudotaktowa	!
1G	nos
=7-	=7-
1.F	san-
2F\	-gui-
!LO:TX:a:t=P:problem:kreska pseudotaktowa	!
1F	-ne
=8-	=8-
1BB-	su-
1BB-	-o
[2C/	re-
!LO:TX:a:t=P:problem:kreska pseudotaktowa	!
2C/]	.
=9-	=9-
0D	-de-
!LO:TX:a:t=P:problem:kreska pseudotaktowa	!
1BB-	-mit
=10-	=10-
1F	il-
1F	-lu-
!LO:TX:a:t=P:problem:kreska pseudotaktowa	!
1BB-	-stret
=11-	=11-
0F	fo-
!LO:TX:a:t=P:problem:kreska pseudotaktowa	!
1F	-ve-
=12-	=12-
0F	-at-
!LO:TX:a:t=P:problem:kreska pseudotaktowa	!
1G	-que
=13-	=13-
0F	cor-
!LO:TX:a:t=P:problem:kreska pseudotaktowa	!
1D	-da
!LO:LB:g=original	!
=14-	=14-
0E	Chri-
(1F	.
=15-	=15-
!LO:TX:a:t=P:problem:kreska pseudotaktowa	!
0.BB-)	.
=16-	=16-
0.BB-	-stus
=17-	=17-
0.D	.
=18-	=18-
!LO:TX:b:t=a	!
0A	qui
!LO:TX:a:t=P:problem:kreska pseudotaktowa	!
1D	tar-
=19-	=19-
!LO:TX:t=P:problem:kreska taktowa podwójna lub początek repetycji	!
1.G	-ta-
2G\	-re-
!LO:TX:a:t=P:problem:kreska pseudotaktowa	!
1C	-as
=20-	=20-
1F	fre-
1F	-git-
!LO:TX:a:t=P:problem:kreska pseudotaktowa	!
1BB-	-[que]
=21-	=21-
1C	di-
1C	-ras
!LO:TX:a:t=P:problem:kreska pseudotaktowa	!
1GG	ca-
=22-	=22-
!LO:TX:a:t=P:problem:kreska pseudotaktowa	!
0.D	-the-
=23-	=23-
!LO:TX:a:t=P:problem:kreska pseudotaktowa	!
0.GG	-nas
!LO:LB:g=original	!
=24||-	=24||-
*M3/1	*
0D	Con-
!LO:TX:a:t=P:problem:kreska pseudotaktowa	!
1D	-clus-
=25-	=25-
0G	-os-
!LO:TX:a:t=P:problem:kreska pseudotaktowa	!
1G	-que
=26-	=26-
1.F	Pa-
2F\	-tres
!LO:TX:a:t=P:problem:kreska pseudotaktowa	!
1F	re-
=27-	=27-
0BB-	-du-
!LO:TX:a:t=P:problem:kreska pseudotaktowa	!
1BB-	-xit
=28-	=28-
1BB-	pa-
2BB-/	-tres
2C;</	que
2D/	re-
!LO:TX:a:t=P:problem:kreska pseudotaktowa	!
2E\	-du-
=29-	=29-
0F	-xit
!LO:TX:a:t=P:problem:kreska pseudotaktowa	!
1G	ab
=30-	=30-
0.D	um-
=31-	=31-
!LO:TX:a:t=P:problem:kreska pseudotaktowa	!
0.GG	-br[as]
!LO:LB:g=original	!
=32-	=32-
0D	mor-
!LO:TX:a:t=P:problem:kreska pseudotaktowa	!
1D	-tem
=33-	=33-
0A	mor-
!LO:TX:a:t=P:problem:kreska pseudotaktowa	!
1D	-te
=34-	=34-
0E	stra-
!LO:TX:a:t=P:problem:kreska pseudotaktowa	!
1C	-vit
=35-	=35-
1F	vi-
1F	-tam-
!LO:TX:a:t=P:problem:kreska pseudotaktowa	!
1BB-	-que
=36-	=36-
1C	no-
1C	-bis
!LO:TX:a:t=P:problem:kreska pseudotaktowa	!
1GG	do-
=37-	=37-
0D	-na-
!LO:TX:t=P:problem:kreska taktowa podwójna lub koniec repetycji	!
1D	-vit.
=38-	=38-
!LO:TX:a:t=P:problem:kreska pseudotaktowa	!
0.GG	.
!LO:LB:g=original	!
=39||-	=39||-
*M3/1	*
1D	Et
1D	strin-
!LO:TX:a:t=P:problem:kreska pseudotaktowa	!
1D	-xit
=40-	=40-
1.G	ra-
2G\	-bi-
!LO:TX:a:t=P:problem:kreska pseudotaktowa	!
1G	-do
=41-	=41-
1F	ma-
1F	-nus
!LO:TX:a:t=P:problem:kreska pseudotaktowa	!
1F	dra-
=42-	=42-
0BB-	-co-
!LO:TX:a:t=P:problem:kreska pseudotaktowa	!
1BB-	-ni
=43-	=43-
1BB-	ma-
2BB-/	.
2C/	.
2D/	.
2E\	.
=44-	=44-
0F	-nus'
!LO:TX:a:t=P:problem:kreska pseudotaktowa	!
1G	Plu-
=45-	=45-
!LO:TX:a:t=P:problem:kreska pseudotaktowa	!
0.D	-to-
=46-	=46-
0.GG	-ni
!LO:LB:g=original	!
=47-	=47-
1D	[Et]
1D	strin-
!LO:TX:a:t=P:problem:kreska pseudotaktowa	!
1D	-xit
=48-	=48-
1.G	ra-
2G\	-bi-
!LO:TX:a:t=P:problem:kreska pseudotaktowa	!
1G	-do
=49-	=49-
1F	ma-
1F	-nus
!LO:TX:a:t=P:problem:kreska pseudotaktowa	!
1F	[[dra-
=50-	=50-
0BB-	-co-]]
!LO:TX:a:t=P:problem:kreska pseudotaktowa	!
1BB-	-ni
=51-	=51-
1BB-	ma-
2BB-/	.
2C/	.
2D/	.
!LO:TX:a:t=P:problem:kreska pseudotaktowa	!
2E\	-nus
=52-	=52-
0F	Plu-
1G	-to-
=53-	=53-
0.D	-ni
=54-	=54-
*M2\1	*
*met(c)	*
2GG/	Al-
2GG/	-le-
1D	-lu-
=55-	=55-
1GG	-[ia].
==	==
*-	*-
!!!RDF**kern: < = below
!!!AIN: 1 bass
!!!ENC: Marta Lawrence
!!!END: 2021-03-01
!!!ENC: Andrzej Kubiczek
!!!END: 2021-02-18
